X:1
T: Miss Mackenzie's Strathspey
C:
R:Strathspey
Q: 128
K:D
M:4/4
L:1/16
|:d2|AF3 E3F D3F DA,3|B,E3 EE3 E3F GB3|AF3 E3F D3F DA,3|B,B3 AF3 DDD2 D2d2|
AF3 E3F D3F DA,3|B,E3 EE3 E3F GB3|AF3 E3F D3F DA,3|B,B3 AF3 DDD2 D2f2|
a3f agfe fd3 dA3|Be3 ee3 ef3 gb3|a3f agfe fd3 dA3|Bd3 A3F DDD2 D3f|
a3f agfe fd3 dA3|Be3 ee3 ef3 gb3|agf2 gfe2 fed2 edc2|d3B A3F DDD2 D2:|
